X: 539
T:Butlers of Glen Avenue, The
C:Anthony Sullivan
R:Jig
L:1/8
B:Sully's Irish Music Book, Vol.1; Halshaw Music 1979
Z:Paul Kinder
N:Posted to the woodenflute mailing list June 2002
K:G
DEG EDB,|DEG ABB|DEG ABe|dBe dBA|
DEG EDB,|DEG ABB|ede gfe|dBA G3:|
|:gab age|deg B3|gab gab|dBd e3|
gab age|dBd BEE|ede gfe|dBA G3:||


